svg/roller_shade.svg

<svg xmlns="http://www.w3.org/2000/svg" viewBox="0 0 24 24"><path d="M20 19V3H4v16H2v2h20v-2zM6 19v-6h5v1.8c-.4.3-.8.8-.8 1.4 0 1 .8 1.8 1.8 1.8s1.8-.8 1.8-1.8c0-.6-.3-1.1-.8-1.4V13h5v6z"/></svg>

<svg xmlns="http://www.w3.org/2000/svg" id="mdi-roller-shade" viewBox="0 0 24 24"><path d="M20 19V3H4V19H2V21H22V19H20M6 19V13H11V14.8C10.6 15.1 10.2 15.6 10.2 16.2C10.2 17.2 11 18 12 18S13.8 17.2 13.8 16.2C13.8 15.6 13.5 15.1 13 14.8V13H18V19H6Z" /></svg>
